X: 1
T: Lt frn Tuna
O: Tuna, Smland
R: Slngpolska
S: efter en upptagning av Johan Hedin i Korr r 2003
Z: Nils L, 2008-09-05
B: Jmfr SMUS: http://www.smus.se/earkiv/fmk/browselarge.phplang=sw&katalogid=Hs11&bildnr=00055|katalog Hs11 bild 55 (hgersidan), http://www.smus.se/earkiv/fmk/browselarge.phplang=sw&katalogid=Ma9&bildnr=00076|katalog Ma9 bild 76, http://www.smus.se/earkiv/fmk/browselarge.phplang=sw&katalogid=Ma11&bildnr=00029|katalog Ma11 bild 29 (nr 3), och http://www.smus.se/earkiv/fmk/browselarge.phplang=sw&katalogid=Ma17&bildnr=00011|SMUS - katalog Ma17 bild 11 (nr 28)
M: 3/4
K: Bb
L: 1/16
N: Denna lt verkar vara nra slkt med Musik/215|
B,2BA B2B,2 C2B2 | D2BA B2D2 E2g2 | f2ga (bf)gf (ed)cB | (BA)Bd (cB)AG (FD)EC |
B,2BA B2B,2 C2B2 | D2BA B2D2 E2g2 | f2ga (bf)gf (ed)cB | (BA)Bd c4 B4 ::
F2f=e f2F2 G2f2 | A2f=e f2A2 B2b2 | a2c'=e f2ac d2b2 | (ag)f=e f4 f4 |
(fg)_ag a2f2 e2d2 | (ed)ef e2B2 G2E2 | e2gf g2e2 c2A2 | (BA)Bd (cB)AG (FE)DC |
B,2BA B2B,2 C2B2 | D2BA B2D2 E2g2 | f2ga (bf)gf (ed)cB | (BA)Bd c4 B4 :|
